public/static/icons/navbar/ic_cart.svg

<svg height="24" viewBox="0 0 24 24" width="24" xmlns="http://www.w3.org/2000/svg"><g transform="translate(2 2)"><path d="m9.58985382 1.32162476c1.66180188 0 3.06430158 1.12239456 3.49720258 2.64777104h-6.99440518c.432901-1.52537648 1.83540001-2.64777104 3.4972026-2.64777104zm4.62891648-1.32162476c.9093636 0 1.6555835.7429914 1.6555835 1.65235392 0 .90937489-.7462199 1.6529999-1.6555835 1.6529999-.909364 0-1.6529999-.74362501-1.6529999-1.6529999 0-.90936252.7436359-1.65235392 1.6529999-1.65235392z" opacity=".48"/><path d="m7.60483293 15.8737079c.90936397 0 1.6529999.7436373 1.6529999 1.6529999 0 .9093749-.74362997 1.6549376-1.6529999 1.6549376s-1.65235399-.7455627-1.65235399-1.6549376c0-.9093626.74299001-1.6529999 1.65235399-1.6529999zm6.61393737 0c.9093636 0 1.6555835.7436373 1.6555835 1.6529999 0 .9093749-.7462136 1.6549376-1.6555835 1.6549376-.90937 0-1.6529999-.7455627-1.6529999-1.6549376 0-.9093626.7436349-1.6529999 1.6529999-1.6529999zm-10.58074958-13.22722875c.47021948.00126272.87961059.33725114.97151692.79840103l.23706567 1.18597394h13.34220869c.6357812 0 1.1062464.60903974.9644116 1.2234396l-1.9850212 8.59895818c-.1036535.4490251-.5105252.7589977-.9644112.7589977h-10.58333325c-.47083827 0-.88484536-.3341221-.97216282-.8009847l-1.82805386-9.78234852h-1.82869973c-.30322176 0-.57131938-.12557224-.74220274-.31781022-.17088343-.19224988-.2493388-.43483146-.2493388-.67373135 0-.2388999.07845541-.48148147.2493388-.67373136.17088336-.19223764.43898098-.3171643.74220274-.3171643z"/></g></svg>

<svg xmlns="http://www.w3.org/2000/svg" width="24" height="24" viewBox="0 0 24 24">
  <g transform="translate(2 2)">
    <path d="M9.58985382,1.32162476 C11.2516557,1.32162476 12.6541554,2.44401932 13.0870564,3.9693958 L13.0870564,3.9693958 L6.09265122,3.9693958 C6.52555222,2.44401932 7.92805123,1.32162476 9.58985382,1.32162476 Z M14.2187703,2.08721929e-14 C15.1281339,2.08721929e-14 15.8743538,0.742991398 15.8743538,1.65235392 C15.8743538,2.56172881 15.1281339,3.30535382 14.2187703,3.30535382 C13.3094063,3.30535382 12.5657704,2.56172881 12.5657704,1.65235392 C12.5657704,0.742991398 13.3094063,2.08721929e-14 14.2187703,2.08721929e-14 Z" opacity=".48"/>
    <path d="M7.60483293,15.8737079 C8.5141969,15.8737079 9.25783283,16.6173452 9.25783283,17.5267078 C9.25783283,18.4360827 8.51420286,19.1816454 7.60483293,19.1816454 C6.695463,19.1816454 5.95247894,18.4360827 5.95247894,17.5267078 C5.95247894,16.6173452 6.69546895,15.8737079 7.60483293,15.8737079 Z M14.2187703,15.8737079 C15.1281339,15.8737079 15.8743538,16.6173452 15.8743538,17.5267078 C15.8743538,18.4360827 15.1281402,19.1816454 14.2187703,19.1816454 C13.3094003,19.1816454 12.5657704,18.4360827 12.5657704,17.5267078 C12.5657704,16.6173452 13.3094053,15.8737079 14.2187703,15.8737079 Z M3.63802072,2.64647915 C4.1082402,2.64774187 4.51763131,2.98373029 4.60953764,3.44488018 L4.60953764,3.44488018 L4.84660331,4.63085412 L18.188812,4.63085412 C18.8245932,4.63085412 19.2950584,5.23989386 19.1532236,5.85429372 L19.1532236,5.85429372 L17.1682024,14.4532519 C17.0645489,14.902277 16.6576772,15.2122496 16.2037912,15.2122496 L16.2037912,15.2122496 L5.62045795,15.2122496 C5.14961968,15.2122496 4.73561259,14.8781275 4.64829513,14.4112649 L4.64829513,14.4112649 L2.82024127,4.62891638 L0.99154154,4.62891638 C0.688319784,4.62891638 0.420222159,4.50334414 0.249338799,4.31110616 C0.0784553735,4.11885628 -1.0658141e-14,3.8762747 -1.0658141e-14,3.63737481 C-1.0658141e-14,3.39847491 0.0784554066,3.15589334 0.249338799,2.96364345 C0.420222159,2.77140581 0.688319784,2.64647915 0.99154154,2.64647915 L0.99154154,2.64647915 Z"/>
  </g>
</svg>
